src/components/atoms/Icon/icons/sort-caption.svg

<svg xmlns="http://www.w3.org/2000/svg" xmlns:xlink="http://www.w3.org/1999/xlink" width="20" height="20"><defs><path id="sort-caption-a" d="M7 12.01h3L6 16l-4-3.99h3V3h2v9.01zm3-4.02L14 4l4 3.99h-3V17h-2V7.99h-3z"/></defs><g fill="none" fill-rule="evenodd"><mask id="sort-caption-b" fill="#fff"><use xlink:href="#sort-caption-a"/></mask><use fill="#000" fill-rule="nonzero" xlink:href="#sort-caption-a"/><g fill="currentcolor" fill-rule="nonzero" mask="url(#sort-caption-b)"><path d="M-2-2h24v24H-2z"/></g></g></svg>

<svg xmlns="http://www.w3.org/2000/svg" xmlns:xlink="http://www.w3.org/1999/xlink" width="20" height="20" viewBox="0 0 20 20">
  <defs>
    <path id="sort-caption-a" d="M7,12.01 L10,12.01 L6,16 L2,12.01 L5,12.01 L5,3 L7,3 L7,12.01 Z M10,7.99 L14,4 L18,7.99 L15,7.99 L15,17 L13,17 L13,7.99 L10,7.99 Z"/>
  </defs>
  <g fill="none" fill-rule="evenodd">
    <mask id="sort-caption-b" fill="#fff">
      <use xlink:href="#sort-caption-a"/>
    </mask>
    <use fill="#000" fill-rule="nonzero" xlink:href="#sort-caption-a"/>
    <g fill="currentcolor" fill-rule="nonzero" mask="url(#sort-caption-b)">
      <rect width="24" height="24" transform="translate(-2 -2)"/>
    </g>
  </g>
</svg>
